public/logos/arth.svg

<svg xmlns="http://www.w3.org/2000/svg" width="126" height="14" viewBox="0 0 126 14" fill="none">
<g clip-path="url(#clip0_36_59)">
<mask id="mask0_36_59" style="mask-type:luminance" maskUnits="userSpaceOnUse" x="0" y="0" width="126" height="14">
<path d="M125.125 0H0V14H125.125V0Z" fill="white"/>
</mask>
<g mask="url(#mask0_36_59)">
<mask id="mask1_36_59" style="mask-type:luminance" maskUnits="userSpaceOnUse" x="0" y="0" width="126" height="14">
<path d="M0 0H125.125V14H0V0Z" fill="white"/>
</mask>
<g mask="url(#mask1_36_59)">
<mask id="mask2_36_59" style="mask-type:luminance" maskUnits="userSpaceOnUse" x="0" y="0" width="126" height="14">
<path d="M0 0H125.125V14H0V0Z" fill="white"/>
</mask>
<g mask="url(#mask2_36_59)">
<mask id="mask3_36_59" style="mask-type:luminance" maskUnits="userSpaceOnUse" x="0" y="0" width="126" height="14">
<path d="M0 0H125.125V14H0V0Z" fill="white"/>
</mask>
<g mask="url(#mask3_36_59)">
<path d="M25.3891 9.7117L19.2991 0.236328H16.0125V13.7726H18.8158V4.29721L24.9058 13.7726H28.1924V0.236328H25.3891V9.7117Z" fill="white"/>
</g>
<mask id="mask4_36_59" style="mask-type:luminance" maskUnits="userSpaceOnUse" x="0" y="0" width="126" height="14">
<path d="M0 0H125.125V14H0V0Z" fill="white"/>
</mask>
<g mask="url(#mask4_36_59)">
<path d="M30.5112 2.84689H35.0549V13.7726H37.9551V2.84689H42.4987V0.236328H30.5112V2.84689Z" fill="white"/>
</g>
<mask id="mask5_36_59" style="mask-type:luminance" maskUnits="userSpaceOnUse" x="0" y="0" width="126" height="14">
<path d="M0 0H125.125V14H0V0Z" fill="white"/>
</mask>
<g mask="url(#mask5_36_59)">
<path d="M54.1062 5.63149H47.7262V0.236328H44.8262V13.7726H47.7262V8.24206H54.1062V13.7726H57.0062V0.236328H54.1062V5.63149Z" fill="white"/>
</g>
<mask id="mask6_36_59" style="mask-type:luminance" maskUnits="userSpaceOnUse" x="0" y="0" width="126" height="14">
<path d="M0 0H125.125V14H0V0Z" fill="white"/>
</mask>
<g mask="url(#mask6_36_59)">
<path d="M63.4857 2.84689H67.0633C68.4944 2.84689 69.2486 3.369 69.2486 4.35522C69.2486 5.34143 68.4944 5.86354 67.0633 5.86354H63.4857V2.84689ZM72.1494 4.35522C72.1494 1.80266 70.2735 0.236328 67.1987 0.236328H60.585V13.7726H63.4857V8.4741H66.7151L69.616 13.7726H72.8263L69.6141 8.07053C71.2263 7.45076 72.1494 6.14567 72.1494 4.35522Z" fill="white"/>
</g>
<mask id="mask7_36_59" style="mask-type:luminance" maskUnits="userSpaceOnUse" x="0" y="0" width="126" height="14">
<path d="M0 0H125.125V14H0V0Z" fill="white"/>
</mask>
<g mask="url(#mask7_36_59)">
<path d="M81.0355 11.2928C78.7544 11.2928 77.3626 9.66851 77.3626 7.01933C77.3626 4.33149 78.7544 2.70719 81.0355 2.70719C83.2973 2.70719 84.6698 4.33149 84.6698 7.01933C84.6698 9.66851 83.2973 11.2928 81.0355 11.2928ZM81.0355 0C77.1306 0 74.3662 2.90056 74.3662 7.01933C74.3662 11.0994 77.1306 14 81.0355 14C84.9211 14 87.6662 11.0994 87.6662 7.01933C87.6662 2.90056 84.9211 0 81.0355 0Z" fill="white"/>
</g>
<mask id="mask8_36_59" style="mask-type:luminance" maskUnits="userSpaceOnUse" x="0" y="0" width="126" height="14">
<path d="M0 0H125.125V14H0V0Z" fill="white"/>
</mask>
<g mask="url(#mask8_36_59)">
<path d="M96.859 6.25029H93.2805V2.84689H96.859C98.2904 2.84689 99.0449 3.42702 99.0449 4.54859C99.0449 5.67017 98.2904 6.25029 96.859 6.25029ZM96.9944 0.236328H90.3789V13.7726H93.2805V8.86085H96.9944C100.07 8.86085 101.946 7.2365 101.946 4.54859C101.946 1.86067 100.07 0.236328 96.9944 0.236328Z" fill="white"/>
</g>
<mask id="mask9_36_59" style="mask-type:luminance" maskUnits="userSpaceOnUse" x="0" y="0" width="126" height="14">
<path d="M0 0H125.125V14H0V0Z" fill="white"/>
</mask>
<g mask="url(#mask9_36_59)">
<path d="M121.586 9.22376C121.083 10.5387 120.078 11.2928 118.705 11.2928C116.424 11.2928 115.032 9.66851 115.032 7.01933C115.032 4.33149 116.424 2.70719 118.705 2.70719C120.078 2.70719 121.083 3.46132 121.586 4.77624H124.66C123.906 1.8757 121.644 0 118.705 0C114.8 0 112.035 2.90056 112.035 7.01933C112.035 11.0994 114.8 14 118.705 14C121.663 14 123.925 12.105 124.679 9.22376H121.586Z" fill="white"/>
</g>
<mask id="mask10_36_59" style="mask-type:luminance" maskUnits="userSpaceOnUse" x="0" y="0" width="126" height="14">
<path d="M0 0H125.125V14H0V0Z" fill="white"/>
</mask>
<g mask="url(#mask10_36_59)">
<path d="M103.101 0.236328L108.498 13.7726H111.458L106.061 0.236328H103.101Z" fill="white"/>
</g>
<mask id="mask11_36_59" style="mask-type:luminance" maskUnits="userSpaceOnUse" x="0" y="0" width="126" height="14">
<path d="M0 0H125.125V14H0V0Z" fill="white"/>
</mask>
<g mask="url(#mask11_36_59)">
<path d="M5.09653 8.41609L6.94313 3.65906L8.78973 8.41609H5.09653ZM5.39591 0.236328L0 13.7726H3.01707L4.12062 10.93H9.76582L10.8692 13.7726H13.8863L8.49034 0.236328H5.39591Z" fill="white"/>
</g>
</g>
</g>
</g>
</g>
<defs>
<clipPath id="clip0_36_59">
<rect width="125.125" height="14" fill="white"/>
</clipPath>
</defs>
</svg>

<svg xmlns="http://www.w3.org/2000/svg" width="126" height="14" fill="none"><g clip-path="url(#a)"><mask id="b" width="126" height="14" x="0" y="0" maskUnits="userSpaceOnUse" style="mask-type:luminance"><path fill="#fff" d="M125.125 0H0v14h125.125z"/></mask><g mask="url(#b)"><mask id="c" width="126" height="14" x="0" y="0" maskUnits="userSpaceOnUse" style="mask-type:luminance"><path fill="#fff" d="M0 0h125.125v14H0z"/></mask><g mask="url(#c)"><mask id="d" width="126" height="14" x="0" y="0" maskUnits="userSpaceOnUse" style="mask-type:luminance"><path fill="#fff" d="M0 0h125.125v14H0z"/></mask><g mask="url(#d)"><mask id="e" width="126" height="14" x="0" y="0" maskUnits="userSpaceOnUse" style="mask-type:luminance"><path fill="#fff" d="M0 0h125.125v14H0z"/></mask><g mask="url(#e)"><path fill="#fff" d="M25.39 9.712 19.3.236h-3.288v13.537h2.804V4.297l6.09 9.476h3.286V.236H25.39z"/></g><mask id="f" width="126" height="14" x="0" y="0" maskUnits="userSpaceOnUse" style="mask-type:luminance"><path fill="#fff" d="M0 0h125.125v14H0z"/></mask><g mask="url(#f)"><path fill="#fff" d="M30.511 2.847h4.544v10.926h2.9V2.847H42.5V.237H30.51z"/></g><mask id="g" width="126" height="14" x="0" y="0" maskUnits="userSpaceOnUse" style="mask-type:luminance"><path fill="#fff" d="M0 0h125.125v14H0z"/></mask><g mask="url(#g)"><path fill="#fff" d="M54.106 5.631h-6.38V.236h-2.9v13.537h2.9v-5.53h6.38v5.53h2.9V.236h-2.9z"/></g><mask id="h" width="126" height="14" x="0" y="0" maskUnits="userSpaceOnUse" style="mask-type:luminance"><path fill="#fff" d="M0 0h125.125v14H0z"/></mask><g mask="url(#h)"><path fill="#fff" d="M63.486 2.847h3.577c1.431 0 2.186.522 2.186 1.508s-.755 1.509-2.186 1.509h-3.577zm8.663 1.508c0-2.552-1.876-4.119-4.95-4.119h-6.614v13.537h2.9V8.474h3.23l2.901 5.299h3.21L69.614 8.07c1.612-.62 2.535-1.925 2.535-3.716"/></g><mask id="i" width="126" height="14" x="0" y="0" maskUnits="userSpaceOnUse" style="mask-type:luminance"><path fill="#fff" d="M0 0h125.125v14H0z"/></mask><g mask="url(#i)"><path fill="#fff" d="M81.036 11.293c-2.282 0-3.673-1.624-3.673-4.274 0-2.688 1.391-4.312 3.672-4.312 2.262 0 3.635 1.624 3.635 4.312 0 2.65-1.373 4.274-3.635 4.274m0-11.293c-3.905 0-6.67 2.9-6.67 7.02 0 4.08 2.765 6.98 6.67 6.98 3.885 0 6.63-2.9 6.63-6.98 0-4.12-2.745-7.02-6.63-7.02"/></g><mask id="j" width="126" height="14" x="0" y="0" maskUnits="userSpaceOnUse" style="mask-type:luminance"><path fill="#fff" d="M0 0h125.125v14H0z"/></mask><g mask="url(#j)"><path fill="#fff" d="M96.859 6.25h-3.578V2.847h3.578c1.431 0 2.186.58 2.186 1.702S98.29 6.25 96.859 6.25m.135-6.014H90.38v13.537h2.901V8.86h3.714c3.076 0 4.952-1.625 4.952-4.312S100.07.236 96.994.236"/></g><mask id="k" width="126" height="14" x="0" y="0" maskUnits="userSpaceOnUse" style="mask-type:luminance"><path fill="#fff" d="M0 0h125.125v14H0z"/></mask><g mask="url(#k)"><path fill="#fff" d="M121.586 9.224c-.503 1.315-1.508 2.069-2.881 2.069-2.281 0-3.673-1.624-3.673-4.274 0-2.688 1.392-4.312 3.673-4.312 1.373 0 2.378.754 2.881 2.07h3.074C123.906 1.875 121.644 0 118.705 0c-3.905 0-6.67 2.9-6.67 7.02 0 4.08 2.765 6.98 6.67 6.98 2.958 0 5.22-1.895 5.974-4.776z"/></g><mask id="l" width="126" height="14" x="0" y="0" maskUnits="userSpaceOnUse" style="mask-type:luminance"><path fill="#fff" d="M0 0h125.125v14H0z"/></mask><g mask="url(#l)"><path fill="#fff" d="m103.101.236 5.397 13.537h2.96L106.061.236z"/></g><mask id="m" width="126" height="14" x="0" y="0" maskUnits="userSpaceOnUse" style="mask-type:luminance"><path fill="#fff" d="M0 0h125.125v14H0z"/></mask><g mask="url(#m)"><path fill="#fff" d="M5.097 8.416 6.943 3.66 8.79 8.416zm.299-8.18L0 13.773h3.017l1.104-2.843h5.645l1.103 2.843h3.017L8.49.236z"/></g></g></g></g></g><defs><clipPath id="a"><path fill="#fff" d="M0 0h125.125v14H0z"/></clipPath></defs></svg>
